assets/images/filetypes/audio.svg

<svg xmlns="http://www.w3.org/2000/svg" width="32" height="32" viewBox="0 0 32 32">
  <g fill="none" fill-rule="evenodd" transform="translate(1 1)">
    <rect width="30" height="30" fill="#ACF6F7" rx="2"/>
    <path fill="#0CCBD0" d="M8,19.9979317 C6.8954305,19.9979317 6,20.8856614 6,21.9979317 L6,21.9979317 C6,23.1025012 6.89826062,23.9979317 7.99791312,23.9979317 L9,23.9979317 C10.6568542,23.9979317 12,22.6487458 12,21.0005269 L12,13.3224852 C12,13.0410046 12.217172,12.7720898 12.4922264,12.7205046 L18.5077736,11.5923149 C18.7796227,11.5413308 19,11.7161978 19,12.0098818 L19,17.4880499 C19,17.7696499 18.7849426,17.9979317 18.5095215,17.9979317 L17,17.9979317 C15.8954305,17.9979317 15,18.9020069 15,19.9947579 L15,19.8159933 C15,20.9188099 15.8982606,21.8128195 16.9979131,21.8128195 L18,21.8128195 C19.6568542,21.8128195 21,20.464451 21,18.8195676 L21,6.99922157 C21,6.44622446 20.555163,6.07881118 20.0238234,6.17541838 L10.9761766,7.82044507 C10.4370492,7.91846824 10,8.45369268 10,9.00040502 L10,19.4975844 C10,19.7739186 9.78494263,19.9979317 9.50952148,19.9979317 L8,19.9979317 Z"/>
  </g>
</svg>

<svg xmlns="http://www.w3.org/2000/svg" width="32" height="32"><g fill="none" fill-rule="evenodd" transform="translate(1 1)"><rect width="30" height="30" fill="#ACF6F7" rx="2"/><path fill="#0CCBD0" d="M8 19.998c-1.105 0-2 .888-2 2 0 1.105.898 2 1.998 2H9c1.657 0 3-1.35 3-2.997v-7.679a.63.63 0 0 1 .492-.601l6.016-1.129c.272-.05.492.124.492.418v5.478c0 .282-.215.51-.49.51H17c-1.105 0-2 .904-2 1.997v-.179a2 2 0 0 0 1.998 1.997H18c1.657 0 3-1.349 3-2.993V7c0-.554-.445-.921-.976-.825L10.976 7.82C10.437 7.918 10 8.454 10 9v10.498c0 .276-.215.5-.49.5H8z"/></g></svg>
